2021-12-20 19-01 D6500 2.2 VF-S XYZLUT+MTX/MStar Demo #2 2021-12-20 19-01 D6500 2.2 VF-S XYZLUT+MTX.cal
CAL    

DESCRIPTOR "Argyll Device Calibration Curves"
ORIGINATOR "Argyll dispcal"
CREATED "Mon Dec 20 19:34:57 2021"
DEVICE_CLASS "DISPLAY"
COLOR_REP "RGB"
VIDEO_LUT_CALIBRATION_POSSIBLE "YES"
TV_OUTPUT_ENCODING "NO"
DEVICE_TYPE "n"
TARGET_WHITE_XYZ "3.198575 3.366312 3.660954"
TARGET_GAMMA "2.2"
DEGREE_OF_BLACK_OUTPUT_OFFSET "1.0"
BLACK_POINT_CORRECTION "0.0"
BLACK_NEUTRAL_BLEND_RATE "4.0"
BLACK_POINT_HACK "YES"
QUALITY "very low"

BEGIN_ARGYLL_DISPCAL_ARGS
-v2 -d2 -c1 -yn -P0.5,0.5,50.0 -qv -t6500 -g2.2 -f1.0 -k0 -A4.0 -b
END_ARGYLL_DISPCAL_ARGS


NUMBER_OF_FIELDS 4
BEGIN_DATA_FORMAT
RGB_I RGB_R RGB_G RGB_B
END_DATA_FORMAT

NUMBER_OF_SETS 256
BEGIN_DATA
0.000000000 0.000000000 0.000000000 0.000000000
0.003921570 0.000745396 0.001025550 0.001029780
0.007843140 0.001509460 0.002075340 0.002082920
0.011764700 0.002292900 0.003150260 0.003160230
0.015686300 0.003096460 0.004251200 0.004262560
0.019607800 0.003920930 0.005379120 0.005390770
0.023529400 0.004767140 0.006535040 0.006545810
0.027451000 0.005635950 0.007720010 0.007728630
0.031372500 0.006528290 0.008935130 0.008940240
0.035294100 0.007445110 0.010181600 0.010181700
0.039215700 0.008387460 0.011460600 0.011454200
0.043137300 0.009356400 0.012773400 0.012758800
0.047058800 0.010353100 0.014121400 0.014096800
0.050980400 0.011378700 0.015506100 0.015469500
0.054902000 0.012434500 0.016928900 0.016878300
0.058823500 0.013522000 0.018391400 0.018324500
0.062745100 0.014642400 0.019895400 0.019809800
0.066666700 0.015797400 0.021442600 0.021335700
0.070588200 0.016988600 0.023035000 0.022903800
0.074509800 0.018217700 0.024674400 0.024516100
0.078431400 0.019486500 0.026363100 0.026174300
0.082352900 0.020796900 0.028103300 0.027880500
0.086274500 0.022151200 0.029897300 0.029636800
0.090196100 0.023551500 0.031747800 0.031445400
0.094117600 0.025000200 0.033657300 0.033308600
0.098039200 0.026499800 0.035627400 0.035228400
0.101961000 0.028052700 0.037658400 0.037204400
0.105882000 0.029659200 0.039750000 0.039235500
0.109804000 0.031319400 0.041901000 0.041321000
0.113725000 0.033032600 0.044110500 0.043460100
0.117647000 0.034798300 0.046378600 0.045652300
0.121569000 0.036617100 0.048704600 0.047897100
0.125490000 0.038488800 0.051088500 0.050194800
0.129412000 0.040413600 0.053528700 0.052545700
0.133333000 0.042388600 0.056026900 0.054950800
0.137255000 0.044411300 0.058582100 0.057412100
0.141176000 0.046479300 0.061191100 0.059926600
0.145098000 0.048585100 0.063852900 0.062495200
0.149020000 0.050727400 0.066571400 0.065120100
0.152941000 0.052905400 0.069343600 0.067804500
0.156863000 0.055116200 0.072169800 0.070544300
0.160784000 0.057358800 0.075050000 0.073342900
0.164706000 0.059633500 0.077989100 0.076206700
0.168627000 0.061945200 0.080991600 0.079141500
0.172549000 0.064298900 0.084063800 0.082146200
0.176471000 0.066691200 0.087205600 0.085226700
0.180392000 0.069123400 0.090421000 0.088386800
0.184314000 0.071596700 0.093713500 0.091633200
0.188235000 0.074116200 0.097085500 0.094967300
0.192157000 0.076681900 0.100542000 0.098390400
0.196078000 0.079292000 0.104064000 0.101907000
0.200000000 0.081953700 0.107641000 0.105500000
0.203922000 0.084666200 0.111270000 0.109154000
0.207843000 0.087421100 0.114960000 0.112867000
0.211765000 0.090219300 0.118717000 0.116647000
0.215686000 0.093073300 0.122545000 0.120496000
0.219608000 0.095996200 0.126435000 0.124410000
0.223529000 0.098986800 0.130359000 0.128380000
0.227451000 0.102044000 0.134315000 0.132363000
0.231373000 0.105162000 0.138317000 0.136351000
0.235294000 0.108314000 0.142370000 0.140363000
0.239216000 0.111511000 0.146470000 0.144406000
0.243137000 0.114766000 0.150589000 0.148476000
0.247059000 0.118083000 0.154726000 0.152559000
0.250980000 0.121446000 0.158896000 0.156660000
0.254902000 0.124853000 0.163107000 0.160802000
0.258824000 0.128319000 0.167369000 0.164995000
0.262745000 0.131856000 0.171690000 0.169243000
0.266667000 0.135466000 0.176066000 0.173544000
0.270588000 0.139134000 0.180482000 0.177901000
0.274510000 0.142817000 0.184953000 0.182315000
0.278431000 0.146512000 0.189480000 0.186801000
0.282353000 0.150220000 0.194067000 0.191359000
0.286275000 0.153947000 0.198717000 0.195994000
0.290196000 0.157680000 0.203456000 0.200704000
0.294118000 0.161419000 0.208240000 0.205502000
0.298039000 0.165175000 0.213062000 0.210333000
0.301961000 0.168951000 0.217909000 0.215189000
0.305882000 0.172700000 0.222768000 0.220068000
0.309804000 0.176428000 0.227647000 0.224967000
0.313725000 0.180134000 0.232538000 0.229905000
0.317647000 0.183825000 0.237455000 0.234873000
0.321569000 0.187519000 0.242408000 0.239852000
0.325490000 0.191203000 0.247398000 0.244840000
0.329412000 0.194862000 0.252427000 0.249832000
0.333333000 0.198485000 0.257483000 0.254867000
0.337255000 0.202066000 0.262565000 0.259956000
0.341176000 0.205628000 0.267696000 0.265086000
0.345098000 0.209193000 0.272885000 0.270279000
0.349020000 0.212757000 0.278127000 0.275565000
0.352941000 0.216336000 0.283423000 0.280933000
0.356863000 0.219951000 0.288868000 0.286369000
0.360784000 0.223606000 0.294456000 0.291927000
0.364706000 0.227286000 0.300157000 0.297618000
0.368627000 0.230959000 0.305922000 0.303441000
0.372549000 0.234639000 0.311769000 0.309349000
0.376471000 0.238352000 0.317703000 0.315361000
0.380392000 0.242098000 0.323723000 0.321481000
0.384314000 0.245881000 0.329828000 0.327702000
0.388235000 0.249680000 0.335969000 0.334014000
0.392157000 0.253509000 0.342039000 0.340394000
0.396078000 0.257374000 0.348035000 0.346699000
0.400000000 0.261276000 0.353959000 0.352903000
0.403922000 0.265217000 0.359807000 0.359010000
0.407843000 0.269201000 0.365595000 0.365029000
0.411765000 0.273248000 0.371335000 0.370986000
0.415686000 0.277300000 0.376960000 0.376901000
0.419608000 0.281347000 0.382454000 0.382682000
0.423529000 0.285390000 0.387814000 0.388291000
0.427451000 0.289421000 0.393026000 0.393702000
0.431373000 0.293443000 0.398214000 0.398889000
0.435294000 0.297460000 0.403504000 0.403925000
0.439216000 0.301479000 0.408872000 0.408962000
0.443137000 0.305487000 0.414292000 0.413989000
0.447059000 0.309446000 0.419755000 0.419006000
0.450980000 0.313356000 0.425231000 0.424018000
0.454902000 0.317209000 0.430675000 0.429012000
0.458824000 0.320961000 0.436090000 0.433970000
0.462745000 0.324622000 0.441463000 0.438867000
0.466667000 0.328296000 0.446793000 0.443709000
0.470588000 0.332026000 0.452055000 0.448496000
0.474510000 0.335804000 0.457244000 0.453236000
0.478431000 0.339631000 0.462369000 0.457914000
0.482353000 0.343510000 0.467414000 0.462519000
0.486275000 0.347443000 0.472401000 0.467071000
0.490196000 0.351418000 0.477335000 0.471554000
0.494118000 0.355410000 0.482224000 0.475961000
0.498039000 0.359406000 0.487070000 0.480301000
0.501961000 0.363399000 0.491873000 0.484576000
0.505882000 0.367407000 0.496612000 0.488790000
0.509804000 0.371406000 0.501271000 0.492946000
0.513725000 0.375376000 0.505853000 0.497046000
0.517647000 0.379349000 0.510362000 0.501094000
0.521569000 0.383318000 0.514793000 0.505091000
0.525490000 0.387279000 0.519146000 0.509053000
0.529412000 0.391231000 0.523416000 0.512983000
0.533333000 0.395174000 0.527596000 0.516880000
0.537255000 0.399110000 0.531704000 0.520743000
0.541176000 0.403021000 0.535729000 0.524569000
0.545098000 0.406898000 0.539665000 0.528360000
0.549020000 0.410738000 0.543527000 0.532111000
0.552941000 0.414535000 0.547313000 0.535830000
0.556863000 0.418287000 0.551032000 0.539527000
0.560784000 0.421995000 0.554700000 0.543188000
0.564706000 0.425659000 0.558326000 0.546808000
0.568627000 0.429278000 0.561908000 0.550402000
0.572549000 0.432857000 0.565482000 0.553970000
0.576471000 0.436411000 0.569070000 0.557519000
0.580392000 0.439940000 0.572668000 0.561060000
0.584314000 0.443431000 0.576272000 0.564602000
0.588235000 0.446899000 0.579875000 0.568145000
0.592157000 0.450337000 0.583485000 0.571696000
0.596078000 0.453763000 0.587099000 0.575276000
0.600000000 0.457202000 0.590692000 0.578885000
0.603922000 0.460647000 0.594274000 0.582524000
0.607843000 0.464086000 0.597852000 0.586192000
0.611765000 0.467543000 0.601426000 0.589885000
0.615686000 0.471022000 0.604991000 0.593600000
0.619608000 0.474507000 0.608551000 0.597323000
0.623529000 0.477991000 0.612113000 0.601031000
0.627451000 0.481470000 0.615673000 0.604734000
0.631373000 0.484951000 0.619208000 0.608431000
0.635294000 0.488426000 0.622711000 0.612120000
0.639216000 0.491868000 0.626176000 0.615793000
0.643137000 0.495276000 0.629604000 0.619462000
0.647059000 0.498641000 0.632995000 0.623136000
0.650980000 0.501959000 0.636354000 0.626797000
0.654902000 0.505248000 0.639671000 0.630416000
0.658824000 0.508491000 0.642937000 0.633985000
0.662745000 0.511670000 0.646142000 0.637498000
0.666667000 0.514785000 0.649278000 0.640952000
0.670588000 0.517834000 0.652348000 0.644351000
0.674510000 0.520810000 0.655352000 0.647701000
0.678431000 0.523718000 0.658298000 0.651002000
0.682353000 0.526566000 0.661216000 0.654252000
0.686275000 0.529351000 0.664150000 0.657441000
0.690196000 0.532061000 0.667119000 0.660564000
0.694118000 0.534689000 0.670122000 0.663625000
0.698039000 0.537235000 0.673152000 0.666623000
0.701961000 0.539704000 0.676203000 0.669580000
0.705882000 0.542104000 0.679277000 0.672511000
0.709804000 0.544480000 0.682381000 0.675450000
0.713725000 0.546840000 0.685517000 0.678428000
0.717647000 0.549185000 0.688690000 0.681442000
0.721569000 0.551513000 0.691887000 0.684487000
0.725490000 0.553821000 0.695095000 0.687561000
0.729412000 0.556125000 0.698320000 0.690670000
0.733333000 0.558450000 0.701560000 0.693816000
0.737255000 0.560792000 0.704817000 0.696997000
0.741176000 0.563148000 0.708086000 0.700216000
0.745098000 0.565515000 0.711352000 0.703459000
0.749020000 0.567899000 0.714613000 0.706715000
0.752941000 0.570296000 0.717867000 0.709983000
0.756863000 0.572701000 0.721121000 0.713257000
0.760784000 0.575112000 0.724365000 0.716539000
0.764706000 0.577528000 0.727591000 0.719825000
0.768627000 0.579949000 0.730797000 0.723103000
0.772549000 0.582372000 0.733987000 0.726365000
0.776471000 0.584793000 0.737159000 0.729608000
0.780392000 0.587207000 0.740311000 0.732839000
0.784314000 0.589601000 0.743437000 0.736050000
0.788235000 0.591974000 0.746545000 0.739232000
0.792157000 0.594330000 0.749638000 0.742383000
0.796078000 0.596666000 0.752715000 0.745504000
0.800000000 0.598979000 0.755771000 0.748599000
0.803922000 0.601270000 0.758802000 0.751664000
0.807843000 0.603539000 0.761814000 0.754707000
0.811765000 0.605787000 0.764806000 0.757745000
0.815686000 0.608014000 0.767776000 0.760779000
0.819608000 0.610220000 0.770732000 0.763809000
0.823529000 0.612410000 0.773679000 0.766832000
0.827451000 0.614599000 0.776616000 0.769848000
0.831373000 0.616793000 0.779541000 0.772867000
0.835294000 0.618998000 0.782450000 0.775890000
0.839216000 0.621220000 0.785339000 0.778918000
0.843137000 0.623456000 0.788208000 0.781958000
0.847059000 0.625709000 0.791102000 0.785014000
0.850980000 0.627991000 0.794061000 0.788092000
0.854902000 0.630303000 0.797085000 0.791194000
0.858824000 0.632651000 0.800171000 0.794318000
0.862745000 0.635051000 0.803323000 0.797459000
0.866667000 0.637509000 0.806548000 0.800631000
0.870588000 0.640032000 0.809848000 0.803908000
0.874510000 0.642622000 0.813227000 0.807307000
0.878431000 0.645279000 0.816696000 0.810830000
0.882353000 0.648039000 0.820260000 0.814479000
0.886275000 0.650942000 0.823932000 0.818269000
0.890196000 0.654034000 0.827720000 0.822205000
0.894118000 0.657333000 0.831623000 0.826290000
0.898039000 0.660839000 0.835642000 0.830530000
0.901961000 0.664554000 0.839781000 0.834950000
0.905882000 0.668484000 0.844054000 0.839557000
0.909804000 0.672638000 0.848512000 0.844354000
0.913725000 0.677001000 0.853169000 0.849336000
0.917647000 0.681534000 0.858010000 0.854492000
0.921569000 0.686224000 0.863025000 0.859851000
0.925490000 0.691076000 0.868176000 0.865449000
0.929412000 0.696054000 0.873456000 0.871267000
0.933333000 0.701206000 0.878842000 0.877277000
0.937255000 0.706550000 0.884340000 0.883392000
0.941176000 0.712083000 0.889944000 0.889604000
0.945098000 0.717758000 0.895603000 0.895932000
0.949020000 0.723563000 0.901333000 0.902397000
0.952941000 0.729528000 0.907139000 0.908945000
0.956863000 0.735623000 0.913004000 0.915578000
0.960784000 0.741787000 0.918933000 0.922309000
0.964706000 0.748020000 0.924934000 0.929154000
0.968627000 0.754336000 0.931059000 0.936143000
0.972549000 0.760816000 0.937323000 0.943346000
0.976471000 0.767515000 0.943700000 0.950766000
0.980392000 0.774359000 0.950177000 0.958357000
0.984314000 0.781354000 0.956759000 0.966123000
0.988235000 0.788541000 0.963449000 0.974091000
0.992157000 0.795903000 0.970250000 0.982274000
0.996078000 0.803444000 0.977165000 0.990680000
1.000000000 0.811170000 0.984197000 0.999318000
END_DATA
CAL    

DESCRIPTOR "Argyll Calibration options and model"
ORIGINATOR "Argyll dispcal"
CREATED "Mon Dec 20 19:34:57 202"

NUMBER_OF_FIELDS 3
BEGIN_DATA_FORMAT
R_P G_P B_P
END_DATA_FORMAT

NUMBER_OF_SETS 32
BEGIN_DATA
0.00522695 0.00391416 0.00506716
0.99477300 0.99608600 0.99493300
-0.23528100 0.62387600 0.54490000
2.79671100 1.94129200 3.34915500
-0.71666600 -0.35521800 -0.61227100
0.59677300 0.26280000 0.17027700
-0.22210400 -0.20721800 -0.28564800
0.16329200 0.01146330 -0.10342500
-0.08772580 -0.07262910 -0.13921000
0.13574400 0.01483420 0.00473140
-0.04797320 -0.05458690 -0.03531630
0.05876490 -0.02474350 0.04255540
-0.04855800 -0.02174340 0.04120260
0.03640740 0.02732720 0.04127920
-0.03433050 0.02526540 0.00316405
0.04565210 0.05066210 -0.01895310
-0.01287510 0.03557660 0.00032050
0.06591890 0.00236389 -0.01749720
0.01544400 0.00102117 0.05929040
0.04469490 0.01075140 0.02152600
-0.00733653 0.01438830 0.07374740
0.03304600 0.01924570 0.03004040
-0.00630384 0.02435720 0.03862920
0.00318124 0.01625440 0.01442750
-0.01263710 0.01612790 0.00883565
0.00328042 0.03197400 0.00732305
-0.02295800 0.03714690 -0.00763346
-0.00566842 0.03744090 0.01296590
-0.01217780 0.03689950 0.00297798
0.00356499 0.02653970 0.01976330
-0.00458746 0.02114600 0.03648520
0.01144830 0.02887100 0.02818930
END_DATA
