2021-12-22 20-20 2.2 VF-S XYZLUT+MTX/MStar Demo #2 2021-12-22 20-20 2.2 VF-S XYZLUT+MTX.ti3
CTI3   

DESCRIPTOR "Argyll Calibration Target chart information 3"
ORIGINATOR "Argyll dispread"
CREATED "Wed Dec 22 20:38:55 2021"
DEVICE_CLASS "DISPLAY"
SINGLE_DIM_STEPS "4"
COMP_GREY_STEPS "52"
MULTI_DIM_STEPS "4"
COLOR_REP "RGB_XYZ"
TARGET_INSTRUMENT "X-Rite i1 DisplayPro, ColorMunki Display"
DISPLAY_TYPE_REFRESH "YES"
DISPLAY_TYPE_BASE_ID "2"
INSTRUMENT_TYPE_SPECTRAL "NO"
LUMINANCE_XYZ_CDM2 "4.239138 4.851353 5.716211"
NORMALIZED_TO_Y_100 "YES"
VIDEO_LUT_CALIBRATION_POSSIBLE "YES"

BEGIN_ARGYLL_COLPROF_ARGS
-v -qh -aX -bn -C "No copyright. Created with DisplayCAL 3.8.9.3 and ArgyllCMS 2.2.1" -M "MStar Demo" -A "MS Telematica"
END_ARGYLL_COLPROF_ARGS

OBSERVER "1931_2"
USE_BLACK_POINT_COMPENSATION "NO"
BLACK_POINT_CORRECTION "0.0"
HIRES_B2A "YES"
HIRES_B2A_SIZE "-1"
SMOOTH_B2A "YES"
PATCH_SEQUENCE "OPTIMIZE_DISPLAY_RESPONSE_DELAY"

NUMBER_OF_FIELDS 7
BEGIN_DATA_FORMAT
SAMPLE_ID RGB_R RGB_G RGB_B XYZ_X XYZ_Y XYZ_Z
END_DATA_FORMAT

NUMBER_OF_SETS 114
BEGIN_DATA
1 100.0000 100.0000 100.0000 87.38053 100.0000 117.8272
2 100.0000 66.66700 100.0000 65.18465 60.54041 111.7857
3 100.0000 100.0000 100.0000 87.55476 100.1666 118.1601
4 100.0000 100.0000 100.0000 87.46005 100.0916 117.8339
5 0.000000 0.000000 0.000000 0.000000 0.000000 0.000000
6 33.33300 0.000000 0.000000 5.324395 3.085759 0.856733
7 66.66700 0.000000 0.000000 30.80264 17.75355 4.309588
8 100.0000 0.000000 0.000000 30.76576 17.75844 4.292549
9 100.0000 0.000000 33.33300 32.85051 19.83111 14.33199
10 100.0000 33.33300 33.33300 34.33755 23.15522 11.98672
11 100.0000 66.66700 33.33300 45.19772 43.47734 8.930072
12 100.0000 66.66700 66.66700 52.21186 48.95989 47.82206
13 66.66700 0.000000 100.0000 38.33030 31.23740 106.7253
14 100.0000 0.000000 100.0000 53.65470 40.07060 108.5054
15 3.921600 3.921600 3.921600 0.151400 0.162160 0.222630
16 5.882400 5.882400 5.882400 0.224820 0.259183 0.323480
17 7.843100 7.843100 7.843100 0.346734 0.406692 0.504510
18 9.803900 9.803900 9.803900 0.516709 0.603170 0.687752
19 11.76500 11.76500 11.76500 0.768979 0.903720 1.100283
20 13.72600 13.72600 13.72600 1.047184 1.195121 1.405642
21 15.68600 15.68600 15.68600 1.455572 1.632775 1.766663
22 17.64700 17.64700 17.64700 1.873052 2.123337 2.351309
23 19.60800 19.60800 19.60800 2.295515 2.609909 2.933318
24 21.56900 21.56900 21.56900 2.778169 3.194063 3.639072
25 23.52900 23.52900 23.52900 3.380631 3.898548 4.605428
26 25.49000 25.49000 25.49000 4.060728 4.678429 5.516765
27 27.45100 27.45100 27.45100 4.854414 5.510691 6.533934
28 29.41200 29.41200 29.41200 5.705860 6.529775 7.750536
29 31.37300 31.37300 31.37300 6.651104 7.595555 8.924153
30 33.33300 33.33300 33.33300 7.728688 8.830495 10.26089
31 35.29400 35.29400 35.29400 8.842999 10.12759 11.82083
32 37.25500 37.25500 37.25500 9.870271 11.32103 13.20945
33 39.21600 39.21600 39.21600 11.05373 12.63871 14.78392
34 41.17600 41.17600 41.17600 12.32408 14.10220 16.66590
35 43.13700 43.13700 43.13700 13.55290 15.49145 18.19375
36 45.09800 45.09800 45.09800 14.91767 16.92237 20.00935
37 47.05900 47.05900 47.05900 16.38934 18.35396 22.47122
38 49.02000 49.02000 49.02000 17.97354 20.30018 24.77387
39 50.98000 50.98000 50.98000 19.81239 22.52236 26.95806
40 52.94100 52.94100 52.94100 21.47193 24.51071 28.62201
41 54.90200 54.90200 54.90200 23.53672 26.95599 31.75328
42 56.86300 56.86300 56.86300 25.43609 29.07899 34.40996
43 58.82400 58.82400 58.82400 27.43865 31.30026 37.48941
44 60.78400 60.78400 60.78400 29.35618 33.51267 40.48218
45 62.74500 62.74500 62.74500 31.45382 36.09476 43.07606
46 64.70600 64.70600 64.70600 33.54065 38.54149 45.81444
47 66.66700 66.66700 66.66700 35.97424 41.21076 48.49815
48 68.62700 68.62700 68.62700 38.25960 43.85647 51.50709
49 70.58800 70.58800 70.58800 40.22596 46.19966 53.51068
50 72.54900 72.54900 72.54900 42.60424 48.96411 57.03569
51 74.51000 74.51000 74.51000 45.27452 51.97895 60.63434
52 76.47100 76.47100 76.47100 47.99929 55.19131 64.16626
53 78.43100 78.43100 78.43100 50.48164 57.90930 67.87303
54 80.39200 80.39200 80.39200 53.54516 61.39432 71.66521
55 82.35300 82.35300 82.35300 56.05106 64.43355 74.63667
56 84.31400 84.31400 84.31400 59.48552 68.19931 80.32697
57 86.27500 86.27500 86.27500 62.76549 71.63718 83.92113
58 88.23500 88.23500 88.23500 66.35579 75.86958 90.03848
59 90.19600 90.19600 90.19600 69.64277 80.00466 95.13301
60 92.15700 92.15700 92.15700 73.13201 83.90001 99.39138
61 94.11800 94.11800 94.11800 77.31510 88.96563 106.5687
62 96.07800 96.07800 96.07800 81.98660 93.86654 114.0422
63 98.03900 98.03900 98.03900 85.94866 97.94238 117.4513
64 33.33300 33.33300 0.000000 6.898230 8.238876 1.470714
65 66.66700 33.33300 0.000000 27.13376 19.27060 4.197193
66 100.0000 33.33300 0.000000 33.39890 22.57415 4.978538
67 100.0000 66.66700 0.000000 46.33073 45.52375 8.232635
68 66.66700 66.66700 0.000000 33.44669 38.28160 6.560088
69 33.33300 66.66700 0.000000 20.70530 34.94918 5.155086
70 33.33300 100.0000 0.000000 38.50608 68.19416 9.756952
71 66.66700 100.0000 0.000000 49.86290 72.87974 11.18671
72 100.0000 100.0000 0.000000 66.30883 81.06329 13.20755
73 100.0000 100.0000 33.33300 66.32530 81.07655 13.21210
74 100.0000 100.0000 66.66700 71.13194 84.79188 40.41004
75 0.000000 33.33300 0.000000 4.273166 7.497969 1.174717
76 0.000000 33.33300 33.33300 6.287522 8.770699 13.91156
77 33.33300 66.66700 66.66700 29.55016 40.73376 62.11974
78 0.000000 66.66700 0.000000 22.40428 39.65535 5.752686
79 0.000000 66.66700 33.33300 22.68399 37.50202 19.72213
80 33.33300 66.66700 33.33300 20.97386 34.76529 13.64251
81 66.66700 66.66700 33.33300 30.35981 35.76077 7.680536
82 0.000000 100.0000 0.000000 38.48485 68.19229 9.756325
83 0.000000 100.0000 33.33300 42.29777 71.37600 29.44165
84 33.33300 100.0000 33.33300 40.12479 69.30553 19.44454
85 66.66700 100.0000 33.33300 48.36761 71.65792 10.95493
86 66.66700 100.0000 66.66700 51.37474 76.56034 54.91962
87 66.66700 0.000000 33.33300 32.84708 19.77883 13.98041
88 66.66700 0.000000 66.66700 47.50776 36.46590 107.9918
89 100.0000 0.000000 66.66700 49.37031 35.82936 89.25760
90 100.0000 33.33300 66.66700 45.30802 33.46767 62.30750
91 66.66700 33.33300 33.33300 27.60308 19.61170 11.97473
92 66.66700 33.33300 66.66700 38.77024 31.68792 82.00829
93 0.000000 0.000000 33.33300 3.389224 3.200547 14.41568
94 0.000000 33.33300 66.66700 25.43157 26.26321 105.5625
95 33.33300 33.33300 66.66700 22.16412 21.84235 76.02547
96 0.000000 66.66700 66.66700 35.84670 47.94855 91.12666
97 0.000000 100.0000 66.66700 48.25171 77.01735 56.58685
98 33.33300 100.0000 66.66700 49.93323 77.67626 66.50426
99 33.33300 0.000000 33.33300 7.046357 5.153608 13.30421
100 33.33300 0.000000 66.66700 26.17898 23.74312 100.3420
101 33.33300 0.000000 100.0000 30.84704 26.94002 105.7993
102 0.000000 0.000000 66.66700 23.93323 22.96189 105.0621
103 0.000000 0.000000 100.0000 24.26772 23.14509 105.1520
104 0.000000 33.33300 100.0000 25.45879 26.36111 105.7108
105 33.33300 33.33300 100.0000 28.71340 27.73635 105.8323
106 66.66700 33.33300 100.0000 40.13175 34.72782 107.4786
107 100.0000 33.33300 100.0000 55.64910 43.50134 109.4132
108 0.000000 66.66700 100.0000 36.42907 45.70531 108.7376
109 33.33300 66.66700 100.0000 36.71205 43.97172 108.3704
110 66.66700 66.66700 100.0000 49.24619 51.00885 109.7343
111 66.66700 100.0000 100.0000 64.82808 87.42835 115.1590
112 0.000000 100.0000 100.0000 59.34759 86.45531 114.7030
113 33.33300 100.0000 100.0000 58.88058 84.81219 114.3182
114 100.0000 100.0000 100.0000 87.70733 100.3207 117.8880
END_DATA
CAL    

DESCRIPTOR "Argyll Device Calibration State"
ORIGINATOR "Argyll dispread"
CREATED "Wed Dec 22 20:38:55 2021"
DEVICE_CLASS "DISPLAY"
COLOR_REP "RGB"

BEGIN_ARGYLL_DISPCAL_ARGS
-v2 -qv -m -t -g2.2 -f1.0 -k0 -A4.0 -d2 -c1 -yr -P0.5,0.5,50.0 -X "ProjectorFamily_07Feb11.ccss"
END_ARGYLL_DISPCAL_ARGS


NUMBER_OF_FIELDS 4
BEGIN_DATA_FORMAT
RGB_I RGB_R RGB_G RGB_B
END_DATA_FORMAT

NUMBER_OF_SETS 256
BEGIN_DATA
0.00000000 0.00000000 0.00000000 0.00000000
0.00392157 0.00144104 0.00176890 0.00134109
0.00784314 0.00292247 0.00357793 0.00271941
0.01176470 0.00444601 0.00542848 0.00413652
0.01568630 0.00601349 0.00732197 0.00559408
0.01960780 0.00762684 0.00925994 0.00709387
0.02352940 0.00928810 0.01124400 0.00863772
0.02745100 0.01099940 0.01327570 0.01022760
0.03137250 0.01276310 0.01535690 0.01186570
0.03529410 0.01458160 0.01748940 0.01355410
0.03921570 0.01645760 0.01967510 0.01529520
0.04313730 0.01839370 0.02191600 0.01709150
0.04705880 0.02039290 0.02421420 0.01894580
0.05098040 0.02245840 0.02657200 0.02086080
0.05490200 0.02459340 0.02899170 0.02283950
0.05882350 0.02680170 0.03147590 0.02488530
0.06274510 0.02908690 0.03402700 0.02700150
0.06666670 0.03145330 0.03664820 0.02919200
0.07058820 0.03390520 0.03934100 0.03146050
0.07450980 0.03644700 0.04210450 0.03381150
0.07843140 0.03908360 0.04493680 0.03624670
0.08235290 0.04181480 0.04783500 0.03876490
0.08627450 0.04463830 0.05079760 0.04136590
0.09019610 0.04755270 0.05382400 0.04404610
0.09411760 0.05055190 0.05691390 0.04680140
0.09803920 0.05362690 0.06006730 0.04963010
0.10196100 0.05677060 0.06328340 0.05252880
0.10588200 0.05997420 0.06655590 0.05549220
0.10980400 0.06322680 0.06987830 0.05851650
0.11372500 0.06652160 0.07324530 0.06159640
0.11764700 0.06985400 0.07664510 0.06472060
0.12156900 0.07321630 0.08007430 0.06787970
0.12549000 0.07660530 0.08352470 0.07106780
0.12941200 0.08002500 0.08699510 0.07428280
0.13333300 0.08348380 0.09047810 0.07751420
0.13725500 0.08698710 0.09397710 0.08076080
0.14117600 0.09053360 0.09748750 0.08402370
0.14509800 0.09412940 0.10100900 0.08730820
0.14902000 0.09777810 0.10454400 0.09061060
0.15294100 0.10149300 0.10809200 0.09393460
0.15686300 0.10527500 0.11165300 0.09728000
0.16078400 0.10912900 0.11522500 0.10065100
0.16470600 0.11306800 0.11879800 0.10405000
0.16862700 0.11711200 0.12236900 0.10745900
0.17254900 0.12127500 0.12593700 0.11087500
0.17647100 0.12556200 0.12951100 0.11430000
0.18039200 0.12998300 0.13309400 0.11772800
0.18431400 0.13454400 0.13668800 0.12116600
0.18823500 0.13926200 0.14029400 0.12461500
0.19215700 0.14413400 0.14391100 0.12807700
0.19607800 0.14911900 0.14755300 0.13156500
0.20000000 0.15419300 0.15122500 0.13508400
0.20392200 0.15935200 0.15492900 0.13865000
0.20784300 0.16459800 0.15868600 0.14226900
0.21176500 0.16993500 0.16249800 0.14595600
0.21568600 0.17531600 0.16637100 0.14970200
0.21960800 0.18072400 0.17032200 0.15350300
0.22352900 0.18615200 0.17435800 0.15736600
0.22745100 0.19162300 0.17848600 0.16129700
0.23137300 0.19714300 0.18271200 0.16530000
0.23529400 0.20271300 0.18705600 0.16938900
0.23921600 0.20834600 0.19151600 0.17354900
0.24313700 0.21402000 0.19608100 0.17777500
0.24705900 0.21974300 0.20075200 0.18205000
0.25098000 0.22549800 0.20551300 0.18637100
0.25490200 0.23129800 0.21035700 0.19073300
0.25882400 0.23714100 0.21528300 0.19512300
0.26274500 0.24305900 0.22026800 0.19954000
0.26666700 0.24905300 0.22529900 0.20400300
0.27058800 0.25511400 0.23039600 0.20849600
0.27451000 0.26121100 0.23554400 0.21301500
0.27843100 0.26732100 0.24072700 0.21756000
0.28235300 0.27344200 0.24594800 0.22210000
0.28627500 0.27956900 0.25121300 0.22664400
0.29019600 0.28566100 0.25651200 0.23120100
0.29411800 0.29174500 0.26183800 0.23576300
0.29803900 0.29787500 0.26719300 0.24033300
0.30196100 0.30401400 0.27258500 0.24491900
0.30588200 0.31014400 0.27801200 0.24951900
0.30980400 0.31627100 0.28345700 0.25411900
0.31372500 0.32239900 0.28892400 0.25869700
0.31764700 0.32853700 0.29446000 0.26327600
0.32156900 0.33469900 0.30006100 0.26786400
0.32549000 0.34093700 0.30572700 0.27248500
0.32941200 0.34716400 0.31146700 0.27714500
0.33333300 0.35335600 0.31730700 0.28184200
0.33725500 0.35951400 0.32322800 0.28656100
0.34117600 0.36563600 0.32923000 0.29138100
0.34509800 0.37174400 0.33531500 0.29633200
0.34902000 0.37783700 0.34141300 0.30138000
0.35294100 0.38392800 0.34749100 0.30649600
0.35686300 0.39006000 0.35354700 0.31167100
0.36078400 0.39622300 0.35958500 0.31690300
0.36470600 0.40244400 0.36556700 0.32217500
0.36862700 0.40886000 0.37151100 0.32749500
0.37254900 0.41547200 0.37743300 0.33285000
0.37647100 0.42221400 0.38337000 0.33819200
0.38039200 0.42908300 0.38932100 0.34352400
0.38431400 0.43598900 0.39524900 0.34884900
0.38823500 0.44289200 0.40113900 0.35417700
0.39215700 0.44976500 0.40704500 0.35952500
0.39607800 0.45660700 0.41298100 0.36486100
0.40000000 0.46338800 0.41892100 0.37017500
0.40392200 0.47011600 0.42483200 0.37545600
0.40784300 0.47679300 0.43070600 0.38072700
0.41176500 0.48344800 0.43657700 0.38601000
0.41568600 0.49009900 0.44245200 0.39130100
0.41960800 0.49674600 0.44831400 0.39656800
0.42352900 0.50338500 0.45418900 0.40182700
0.42745100 0.50992700 0.46006900 0.40720800
0.43137300 0.51631500 0.46595300 0.41274400
0.43529400 0.52255400 0.47186800 0.41840100
0.43921600 0.52863600 0.47780200 0.42416400
0.44313700 0.53453700 0.48375100 0.43003200
0.44705900 0.54019300 0.48970900 0.43600300
0.45098000 0.54563200 0.49567400 0.44207800
0.45490200 0.55088700 0.50164400 0.44821900
0.45882400 0.55597000 0.50760100 0.45443900
0.46274500 0.56090200 0.51353600 0.46069900
0.46666700 0.56571600 0.51944900 0.46699000
0.47058800 0.57040500 0.52534300 0.47330500
0.47451000 0.57499100 0.53116900 0.47965600
0.47843100 0.57952600 0.53690500 0.48605800
0.48235300 0.58399000 0.54255700 0.49253600
0.48627500 0.58837100 0.54809600 0.49909300
0.49019600 0.59268300 0.55355300 0.50566400
0.49411800 0.59693000 0.55892200 0.51211300
0.49803900 0.60111400 0.56418700 0.51843100
0.50196100 0.60523800 0.56932800 0.52460700
0.50588200 0.60929400 0.57434600 0.53063000
0.50980400 0.61328800 0.57928500 0.53648900
0.51372500 0.61721000 0.58414300 0.54218100
0.51764700 0.62106600 0.58890200 0.54766200
0.52156900 0.62484800 0.59355500 0.55294600
0.52549000 0.62855900 0.59810500 0.55803900
0.52941200 0.63220100 0.60255400 0.56295400
0.53333300 0.63578300 0.60688800 0.56769300
0.53725500 0.63930900 0.61110700 0.57223800
0.54117600 0.64278400 0.61522000 0.57664900
0.54509800 0.64621100 0.61924500 0.58097800
0.54902000 0.64958300 0.62319900 0.58521800
0.55294100 0.65288700 0.62708600 0.58935800
0.55686300 0.65611100 0.63092100 0.59341300
0.56078400 0.65925200 0.63470700 0.59739100
0.56470600 0.66231300 0.63844400 0.60129500
0.56862700 0.66530500 0.64213100 0.60513400
0.57254900 0.66828800 0.64576200 0.60889700
0.57647100 0.67130200 0.64932600 0.61258300
0.58039200 0.67435200 0.65281900 0.61619400
0.58431400 0.67743800 0.65623800 0.61974000
0.58823500 0.68056100 0.65957800 0.62322500
0.59215700 0.68371700 0.66284400 0.62665700
0.59607800 0.68689400 0.66603700 0.63005400
0.60000000 0.69008500 0.66917800 0.63341500
0.60392200 0.69328600 0.67232300 0.63674500
0.60784300 0.69650000 0.67549000 0.64004000
0.61176500 0.69973400 0.67867800 0.64330500
0.61568600 0.70298600 0.68188700 0.64653500
0.61960800 0.70625400 0.68511100 0.64971900
0.62352900 0.70954600 0.68834600 0.65284200
0.62745100 0.71286500 0.69158200 0.65589700
0.63137300 0.71620600 0.69481400 0.65887700
0.63529400 0.71954500 0.69803500 0.66178400
0.63921600 0.72288200 0.70124600 0.66462500
0.64313700 0.72621200 0.70444800 0.66741500
0.64705900 0.72953500 0.70763900 0.67019200
0.65098000 0.73286400 0.71082000 0.67299500
0.65490200 0.73618800 0.71399000 0.67584400
0.65882400 0.73950400 0.71715200 0.67874100
0.66274500 0.74281600 0.72031600 0.68168400
0.66666700 0.74612400 0.72348300 0.68466500
0.67058800 0.74942800 0.72665500 0.68767700
0.67451000 0.75272300 0.72983500 0.69071400
0.67843100 0.75599800 0.73303300 0.69377200
0.68235300 0.75924900 0.73624400 0.69684900
0.68627500 0.76247700 0.73946200 0.69994800
0.69019600 0.76568500 0.74268800 0.70306300
0.69411800 0.76886500 0.74592000 0.70618500
0.69803900 0.77201700 0.74916100 0.70932400
0.70196100 0.77514400 0.75240600 0.71247900
0.70588200 0.77824100 0.75565300 0.71564400
0.70980400 0.78131600 0.75890100 0.71882300
0.71372500 0.78437700 0.76215000 0.72201900
0.71764700 0.78742600 0.76539900 0.72523700
0.72156900 0.79046000 0.76864600 0.72847000
0.72549000 0.79347200 0.77189900 0.73172500
0.72941200 0.79645800 0.77516900 0.73499800
0.73333300 0.79941700 0.77845100 0.73827900
0.73725500 0.80236500 0.78173800 0.74157200
0.74117600 0.80533400 0.78502800 0.74487400
0.74509800 0.80832500 0.78832000 0.74818700
0.74902000 0.81133100 0.79160100 0.75150800
0.75294100 0.81434300 0.79486700 0.75483200
0.75686300 0.81735700 0.79811700 0.75816300
0.76078400 0.82037300 0.80135100 0.76150100
0.76470600 0.82339200 0.80458800 0.76484600
0.76862700 0.82642100 0.80783100 0.76819100
0.77254900 0.82946500 0.81108000 0.77152700
0.77647100 0.83252200 0.81433000 0.77486300
0.78039200 0.83558800 0.81757100 0.77819600
0.78431400 0.83864600 0.82080400 0.78152600
0.78823500 0.84169200 0.82402500 0.78485200
0.79215700 0.84472600 0.82723300 0.78817500
0.79607800 0.84775200 0.83042800 0.79148200
0.80000000 0.85077400 0.83360700 0.79475900
0.80392200 0.85378600 0.83678100 0.79800000
0.80784300 0.85678400 0.83995400 0.80120500
0.81176500 0.85978600 0.84312500 0.80442200
0.81568600 0.86280300 0.84629200 0.80767600
0.81960800 0.86583500 0.84945300 0.81096500
0.82352900 0.86887200 0.85259800 0.81428000
0.82745100 0.87190900 0.85572400 0.81761100
0.83137300 0.87494900 0.85883300 0.82095800
0.83529400 0.87799400 0.86194200 0.82431600
0.83921600 0.88104500 0.86505300 0.82769600
0.84313700 0.88410500 0.86816200 0.83109900
0.84705900 0.88716300 0.87126300 0.83453000
0.85098000 0.89021500 0.87435800 0.83799200
0.85490200 0.89326500 0.87745100 0.84146900
0.85882400 0.89631700 0.88055000 0.84495700
0.86274500 0.89936300 0.88365800 0.84845800
0.86666700 0.90240200 0.88677300 0.85196300
0.87058800 0.90543300 0.88989300 0.85546100
0.87451000 0.90844600 0.89302800 0.85896300
0.87843100 0.91144500 0.89617900 0.86251900
0.88235300 0.91443800 0.89934600 0.86613200
0.88627500 0.91742400 0.90252600 0.86979000
0.89019600 0.92039900 0.90572100 0.87349000
0.89411800 0.92335900 0.90892900 0.87724400
0.89803900 0.92630500 0.91215800 0.88107200
0.90196100 0.92923800 0.91541500 0.88497800
0.90588200 0.93215600 0.91869300 0.88894900
0.90980400 0.93505800 0.92198100 0.89299600
0.91372500 0.93795100 0.92528200 0.89712500
0.91764700 0.94083400 0.92860900 0.90133000
0.92156900 0.94371000 0.93195200 0.90559700
0.92549000 0.94658200 0.93530300 0.90991300
0.92941200 0.94944600 0.93866700 0.91428900
0.93333300 0.95230400 0.94203600 0.91871900
0.93725500 0.95515500 0.94540900 0.92318900
0.94117600 0.95800000 0.94878600 0.92769800
0.94509800 0.96083800 0.95216800 0.93224400
0.94902000 0.96367000 0.95555500 0.93680800
0.95294100 0.96649500 0.95894500 0.94140400
0.95686300 0.96931600 0.96233900 0.94603500
0.96078400 0.97213100 0.96573600 0.95070900
0.96470600 0.97494100 0.96913800 0.95542600
0.96862700 0.97774600 0.97254600 0.96018600
0.97254900 0.98054600 0.97595800 0.96499400
0.97647100 0.98334100 0.97937700 0.96985200
0.98039200 0.98613000 0.98280000 0.97475600
0.98431400 0.98891400 0.98622900 0.97970800
0.98823500 0.99169300 0.98966400 0.98470700
0.99215700 0.99446700 0.99310400 0.98975500
0.99607800 0.99723600 0.99654900 0.99485300
1.00000000 1.00000000 1.00000000 1.00000000
END_DATA
