2021-12-22 19-11 D6500 sRGB VF-S XYZLUT+MTX/MStar Demo #2 2021-12-22 19-11 0.3127x 0.329y sRGB VF-S XYZLUT+MTX.cal
CAL    

DESCRIPTOR "Argyll Device Calibration Curves"
ORIGINATOR "Argyll dispcal"
CREATED "Wed Dec 22 19:33:00 2021"
DEVICE_CLASS "DISPLAY"
COLOR_REP "RGB"
VIDEO_LUT_CALIBRATION_POSSIBLE "YES"
TV_OUTPUT_ENCODING "NO"
DEVICE_TYPE "r"
TARGET_WHITE_XYZ "3.256617 3.426373 3.731519"
TARGET_GAMMA "sRGB"
DEGREE_OF_BLACK_OUTPUT_OFFSET "1.0"
BLACK_POINT_CORRECTION "0.0"
BLACK_NEUTRAL_BLEND_RATE "4.0"
BLACK_POINT_HACK "YES"
QUALITY "very low"

BEGIN_ARGYLL_DISPCAL_ARGS
-v2 -d2 -c1 -yr -P0.5,0.5,50.0 -X "ProjectorFamily_07Feb11.ccss" -qv -m -w0.3127,0.329 -gs -f1.0 -k0 -A4.0 -b
END_ARGYLL_DISPCAL_ARGS


NUMBER_OF_FIELDS 4
BEGIN_DATA_FORMAT
RGB_I RGB_R RGB_G RGB_B
END_DATA_FORMAT

NUMBER_OF_SETS 256
BEGIN_DATA
0.00000000 0.00000000 0.00000000 0.00000000
0.00392157 0.00319988 0.00278587 0.00197773
0.00784314 0.00633749 0.00551152 0.00395599
0.01176470 0.00941462 0.00817888 0.00593480
0.01568630 0.01243300 0.01078980 0.00791414
0.01960780 0.01539430 0.01334610 0.00989403
0.02352940 0.01830010 0.01584930 0.01187450
0.02745100 0.02115200 0.01830130 0.01385540
0.03137250 0.02395150 0.02070350 0.01583690
0.03529410 0.02669990 0.02305730 0.01781900
0.03921570 0.02939880 0.02536440 0.01980160
0.04313730 0.03204930 0.02762600 0.02178470
0.04705880 0.03465630 0.02984500 0.02376840
0.05098040 0.03722980 0.03203080 0.02575260
0.05490200 0.03977480 0.03419500 0.02773740
0.05882350 0.04230000 0.03634860 0.02972530
0.06274510 0.04481430 0.03850020 0.03172200
0.06666670 0.04732530 0.04065700 0.03373450
0.07058820 0.04984130 0.04282630 0.03576720
0.07450980 0.05237090 0.04501190 0.03782430
0.07843140 0.05491870 0.04721870 0.03990860
0.08235290 0.05748760 0.04945090 0.04202100
0.08627450 0.06008060 0.05171060 0.04416170
0.09019610 0.06270180 0.05400060 0.04633140
0.09411760 0.06535510 0.05632510 0.04852940
0.09803920 0.06803950 0.05868720 0.05075800
0.10196100 0.07075460 0.06108510 0.05302000
0.10588200 0.07350120 0.06351980 0.05531760
0.10980400 0.07629360 0.06598840 0.05765070
0.11372500 0.07913310 0.06849240 0.06001790
0.11764700 0.08203220 0.07102570 0.06241670
0.12156900 0.08499040 0.07358410 0.06484060
0.12549000 0.08800890 0.07616290 0.06728370
0.12941200 0.09108750 0.07875750 0.06974410
0.13333300 0.09422290 0.08136190 0.07222050
0.13725500 0.09742450 0.08397010 0.07470980
0.14117600 0.10069400 0.08658090 0.07721150
0.14509800 0.10403400 0.08919980 0.07972540
0.14902000 0.10747200 0.09182880 0.08225180
0.15294100 0.11101700 0.09447040 0.08478860
0.15686300 0.11467400 0.09713080 0.08733720
0.16078400 0.11845700 0.09981300 0.08990130
0.16470600 0.12238400 0.10252300 0.09248480
0.16862700 0.12646800 0.10526900 0.09509080
0.17254900 0.13072300 0.10805200 0.09772450
0.17647100 0.13513600 0.11087500 0.10038700
0.18039200 0.13967700 0.11374100 0.10307900
0.18431400 0.14433900 0.11664300 0.10579500
0.18823500 0.14913800 0.11958100 0.10853500
0.19215700 0.15404500 0.12255500 0.11130100
0.19607800 0.15906000 0.12556800 0.11408800
0.20000000 0.16412600 0.12861300 0.11689700
0.20392200 0.16920700 0.13168700 0.11972000
0.20784300 0.17431100 0.13477300 0.12255600
0.21176500 0.17942700 0.13786900 0.12539800
0.21568600 0.18454700 0.14096700 0.12824300
0.21960800 0.18966100 0.14407200 0.13109000
0.22352900 0.19476400 0.14719000 0.13393500
0.22745100 0.19982100 0.15032200 0.13677700
0.23137300 0.20481800 0.15347000 0.13961400
0.23529400 0.20975100 0.15664000 0.14244800
0.23921600 0.21463200 0.15983000 0.14528000
0.24313700 0.21941800 0.16305300 0.14811300
0.24705900 0.22413900 0.16630800 0.15095100
0.25098000 0.22882800 0.16959500 0.15379100
0.25490200 0.23349200 0.17289800 0.15664300
0.25882400 0.23814000 0.17621400 0.15951200
0.26274500 0.24281800 0.17954300 0.16240200
0.26666700 0.24752600 0.18288300 0.16531300
0.27058800 0.25225400 0.18623500 0.16824000
0.27451000 0.25700200 0.18960700 0.17118000
0.27843100 0.26176100 0.19298100 0.17413600
0.28235300 0.26652700 0.19636100 0.17710600
0.28627500 0.27130400 0.19975800 0.18009300
0.29019600 0.27609300 0.20318300 0.18310100
0.29411800 0.28090200 0.20664100 0.18613400
0.29803900 0.28575600 0.21013300 0.18919300
0.30196100 0.29067600 0.21366200 0.19227200
0.30588200 0.29566800 0.21724700 0.19536800
0.30980400 0.30070800 0.22089300 0.19847900
0.31372500 0.30579800 0.22461100 0.20160400
0.31764700 0.31093800 0.22840500 0.20474700
0.32156900 0.31613800 0.23226500 0.20792100
0.32549000 0.32141200 0.23618300 0.21113600
0.32941200 0.32671500 0.24016000 0.21439500
0.33333300 0.33203500 0.24420500 0.21769900
0.33725500 0.33735800 0.24824900 0.22104600
0.34117600 0.34268800 0.25229300 0.22443800
0.34509800 0.34803900 0.25633500 0.22787700
0.34902000 0.35339400 0.26038500 0.23135700
0.35294100 0.35877300 0.26444200 0.23487800
0.35686300 0.36419900 0.26849000 0.23842000
0.36078400 0.36969600 0.27253500 0.24198300
0.36470600 0.37532400 0.27657600 0.24557100
0.36862700 0.38113700 0.28061800 0.24917400
0.37254900 0.38704400 0.28466400 0.25279500
0.37647100 0.39299100 0.28870600 0.25643600
0.38039200 0.39901300 0.29273200 0.26010400
0.38431400 0.40514100 0.29674100 0.26380300
0.38823500 0.41132300 0.30073200 0.26754100
0.39215700 0.41747900 0.30470500 0.27132100
0.39607800 0.42361900 0.30867300 0.27513800
0.40000000 0.42970500 0.31264200 0.27897500
0.40392200 0.43575600 0.31662400 0.28283200
0.40784300 0.44179700 0.32061400 0.28671000
0.41176500 0.44779400 0.32461100 0.29060400
0.41568600 0.45375400 0.32861400 0.29450700
0.41960800 0.45968700 0.33262800 0.29842100
0.42352900 0.46557200 0.33667900 0.30233900
0.42745100 0.47139600 0.34077900 0.30626000
0.43137300 0.47716100 0.34489600 0.31017000
0.43529400 0.48281500 0.34905500 0.31406200
0.43921600 0.48831200 0.35328200 0.31792700
0.44313700 0.49365400 0.35757000 0.32175400
0.44705900 0.49886300 0.36190300 0.32555900
0.45098000 0.50390200 0.36629200 0.32934300
0.45490200 0.50875400 0.37074400 0.33312300
0.45882400 0.51342200 0.37527400 0.33692600
0.46274500 0.51795900 0.37990600 0.34076400
0.46666700 0.52238500 0.38462200 0.34463400
0.47058800 0.52668900 0.38942700 0.34854000
0.47451000 0.53088800 0.39431400 0.35248800
0.47843100 0.53501000 0.39926400 0.35647100
0.48235300 0.53905500 0.40428300 0.36049200
0.48627500 0.54304500 0.40937500 0.36456300
0.49019600 0.54699400 0.41452600 0.36869400
0.49411800 0.55089400 0.41972900 0.37289300
0.49803900 0.55475600 0.42492100 0.37716400
0.50196100 0.55860900 0.43010300 0.38151200
0.50588200 0.56246600 0.43529900 0.38594700
0.50980400 0.56633200 0.44050800 0.39046300
0.51372500 0.57021200 0.44574300 0.39507000
0.51764700 0.57408900 0.45101500 0.39978000
0.52156900 0.57795400 0.45630600 0.40459500
0.52549000 0.58181000 0.46161600 0.40945600
0.52941200 0.58565700 0.46697000 0.41434800
0.53333300 0.58947400 0.47235400 0.41926900
0.53725500 0.59325300 0.47776800 0.42422200
0.54117600 0.59699800 0.48321400 0.42920000
0.54509800 0.60071500 0.48868100 0.43419100
0.54902000 0.60439900 0.49407700 0.43919600
0.55294100 0.60804900 0.49943700 0.44420100
0.55686300 0.61166400 0.50476900 0.44919500
0.56078400 0.61523700 0.51006800 0.45415900
0.56470600 0.61877300 0.51529300 0.45909400
0.56862700 0.62228800 0.52045400 0.46400200
0.57254900 0.62579900 0.52554500 0.46890400
0.57647100 0.62931400 0.53053100 0.47377000
0.58039200 0.63284900 0.53541300 0.47861100
0.58431400 0.63641900 0.54020500 0.48343000
0.58823500 0.63994500 0.54489700 0.48822000
0.59215700 0.64341800 0.54946800 0.49296700
0.59607800 0.64684000 0.55392500 0.49766100
0.60000000 0.65022600 0.55830600 0.50230600
0.60392200 0.65359500 0.56264200 0.50688900
0.60784300 0.65695800 0.56692400 0.51139700
0.61176500 0.66032200 0.57105100 0.51581300
0.61568600 0.66370000 0.57499800 0.52014700
0.61960800 0.66708800 0.57878700 0.52441200
0.62352900 0.67049400 0.58247300 0.52860100
0.62745100 0.67391900 0.58608000 0.53271900
0.63137300 0.67736800 0.58961500 0.53678200
0.63529400 0.68084200 0.59308000 0.54081400
0.63921600 0.68431700 0.59647400 0.54481900
0.64313700 0.68777800 0.59981300 0.54877600
0.64705900 0.69122600 0.60310600 0.55267100
0.65098000 0.69465900 0.60636400 0.55651100
0.65490200 0.69806600 0.60958700 0.56031500
0.65882400 0.70145000 0.61277400 0.56409300
0.66274500 0.70480600 0.61592200 0.56784100
0.66666700 0.70813600 0.61903600 0.57153900
0.67058800 0.71144100 0.62211400 0.57517800
0.67451000 0.71472600 0.62516300 0.57876400
0.67843100 0.71800500 0.62817900 0.58230300
0.68235300 0.72127800 0.63116000 0.58579400
0.68627500 0.72454400 0.63410300 0.58923100
0.69019600 0.72779900 0.63700900 0.59260800
0.69411800 0.73104400 0.63988100 0.59592800
0.69803900 0.73427300 0.64273100 0.59918700
0.70196100 0.73747400 0.64556200 0.60239400
0.70588200 0.74065600 0.64837500 0.60555100
0.70980400 0.74383700 0.65116700 0.60865600
0.71372500 0.74701300 0.65394100 0.61170800
0.71764700 0.75018000 0.65668500 0.61471200
0.72156900 0.75334400 0.65940200 0.61767900
0.72549000 0.75652000 0.66209800 0.62061700
0.72941200 0.75971700 0.66477300 0.62352700
0.73333300 0.76292200 0.66742400 0.62641300
0.73725500 0.76610000 0.67005300 0.62927900
0.74117600 0.76924800 0.67266700 0.63212600
0.74509800 0.77237100 0.67527800 0.63495400
0.74902000 0.77547900 0.67789000 0.63776700
0.75294100 0.77857500 0.68050500 0.64056600
0.75686300 0.78165900 0.68310900 0.64334500
0.76078400 0.78473800 0.68570400 0.64610300
0.76470600 0.78781100 0.68829700 0.64884400
0.76862700 0.79088000 0.69089800 0.65157100
0.77254900 0.79394200 0.69350800 0.65429200
0.77647100 0.79696800 0.69612100 0.65701600
0.78039200 0.79995100 0.69873300 0.65974500
0.78431400 0.80289300 0.70135100 0.66248100
0.78823500 0.80579400 0.70397500 0.66523000
0.79215700 0.80866700 0.70660600 0.66799200
0.79607800 0.81152300 0.70924700 0.67076100
0.80000000 0.81436700 0.71190100 0.67354300
0.80392200 0.81719900 0.71457000 0.67633800
0.80784300 0.82001700 0.71725700 0.67914800
0.81176500 0.82282600 0.71996200 0.68197200
0.81568600 0.82563300 0.72268700 0.68481100
0.81960800 0.82844000 0.72544000 0.68766300
0.82352900 0.83124200 0.72821800 0.69053300
0.82745100 0.83404100 0.73098500 0.69341400
0.83137300 0.83684100 0.73374300 0.69630000
0.83529400 0.83964000 0.73650000 0.69919700
0.83921600 0.84243500 0.73925700 0.70210000
0.84313700 0.84523000 0.74200900 0.70499600
0.84705900 0.84801400 0.74475600 0.70789100
0.85098000 0.85077600 0.74749500 0.71078600
0.85490200 0.85352200 0.75021900 0.71367500
0.85882400 0.85625500 0.75293300 0.71655600
0.86274500 0.85897800 0.75563700 0.71942100
0.86666700 0.86169300 0.75832000 0.72226700
0.87058800 0.86440600 0.76099200 0.72510200
0.87451000 0.86711000 0.76365400 0.72793000
0.87843100 0.86980100 0.76631100 0.73075500
0.88235300 0.87248400 0.76896700 0.73358400
0.88627500 0.87517000 0.77163000 0.73641200
0.89019600 0.87786300 0.77429200 0.73923800
0.89411800 0.88055700 0.77695600 0.74206100
0.89803900 0.88324400 0.77962300 0.74487600
0.90196100 0.88592400 0.78229400 0.74768400
0.90588200 0.88860200 0.78496700 0.75048500
0.90980400 0.89127200 0.78763300 0.75328200
0.91372500 0.89393500 0.79029900 0.75607500
0.91764700 0.89659300 0.79296600 0.75886400
0.92156900 0.89924400 0.79562500 0.76165300
0.92549000 0.90189100 0.79828000 0.76444200
0.92941200 0.90452800 0.80093000 0.76722500
0.93333300 0.90715900 0.80357900 0.77000700
0.93725500 0.90978300 0.80622400 0.77278300
0.94117600 0.91240100 0.80886200 0.77555100
0.94509800 0.91501200 0.81149100 0.77831000
0.94902000 0.91761500 0.81411200 0.78106000
0.95294100 0.92021100 0.81672500 0.78380200
0.95686300 0.92280000 0.81933000 0.78653600
0.96078400 0.92538400 0.82193000 0.78926400
0.96470600 0.92796200 0.82452800 0.79198800
0.96862700 0.93053500 0.82712400 0.79470900
0.97254900 0.93310100 0.82971800 0.79742900
0.97647100 0.93566200 0.83231000 0.80014700
0.98039200 0.93821700 0.83490100 0.80286200
0.98431400 0.94076700 0.83749000 0.80557500
0.98823500 0.94331100 0.84007600 0.80828600
0.99215700 0.94584900 0.84266100 0.81099500
0.99607800 0.94838100 0.84524400 0.81370200
1.00000000 0.95090800 0.84782500 0.81640600
END_DATA
CAL    

DESCRIPTOR "Argyll Calibration options and model"
ORIGINATOR "Argyll dispcal"
CREATED "Wed Dec 22 19:33:00 202"

NUMBER_OF_FIELDS 3
BEGIN_DATA_FORMAT
R_P G_P B_P
END_DATA_FORMAT

NUMBER_OF_SETS 32
BEGIN_DATA
0.001295980 0.000528463 0.000664136
0.998704000 0.999472000 0.999336000
0.454435000 1.002797000 0.325385000
2.594138000 1.464896000 3.020866000
-0.273092000 -0.180679000 -0.749335000
0.204457000 0.004190110 0.436900000
-0.172913000 0.006935540 -0.203213000
0.051403300 0.017986900 0.055576000
-0.058353600 0.022245700 -0.035529500
0.027905400 0.024779500 0.067485400
-0.019376600 0.021934400 -0.005895520
0.012533700 0.028737100 0.050728000
0.001436370 0.026832400 0.017348700
0.020792600 0.029817100 0.021091100
0.002565340 0.032009000 0.029724900
0.019729000 0.026302200 0.016721300
-0.008065870 0.031888100 0.024522600
0.005160350 0.025277100 0.015522400
-0.003395230 0.027012000 0.027620000
0.002887690 0.026297100 0.021742800
-0.000209350 0.026087800 0.015704500
0.003692320 0.030942400 0.013602400
0.004086950 0.027641900 0.012714000
0.005114250 0.030809200 0.012587600
0.006966710 0.028490500 0.008478210
0.005817670 0.027668900 0.008130860
0.006196200 0.027546700 0.009482580
0.005413410 0.023135100 0.013173600
0.003608600 0.026611300 0.013638900
0.002824480 0.023683800 0.014440500
0.005935140 0.024867800 0.010351300
0.004309000 0.023781500 0.016576300
END_DATA
