2021-12-20 19-45 sRGB VF-F XYZLUT+MTX/MStar Demo #2 2021-12-20 19-45 sRGB VF-F XYZLUT+MTX.cal
CAL    

DESCRIPTOR "Argyll Device Calibration Curves"
ORIGINATOR "Argyll dispcal"
CREATED "Mon Dec 20 20:00:40 2021"
DEVICE_CLASS "DISPLAY"
COLOR_REP "RGB"
VIDEO_LUT_CALIBRATION_POSSIBLE "YES"
TV_OUTPUT_ENCODING "NO"
DEVICE_TYPE "r"
NATIVE_TARGET_WHITE ""
TARGET_WHITE_XYZ "4.504521 5.296567 5.859011"
TARGET_GAMMA "sRGB"
DEGREE_OF_BLACK_OUTPUT_OFFSET "1.0"
BLACK_POINT_CORRECTION "0.0"
BLACK_NEUTRAL_BLEND_RATE "4.0"
BLACK_POINT_HACK "YES"
QUALITY "very low"

BEGIN_ARGYLL_DISPCAL_ARGS
-v2 -d2 -c1 -yr -P0.5,0.5,50.0 -X "ProjectorFamily_07Feb11.ccss" -qv -m -t -gs -f1.0 -k0 -A4.0 -b
END_ARGYLL_DISPCAL_ARGS


NUMBER_OF_FIELDS 4
BEGIN_DATA_FORMAT
RGB_I RGB_R RGB_G RGB_B
END_DATA_FORMAT

NUMBER_OF_SETS 256
BEGIN_DATA
0.00000000 0.00000000 0.00000000 0.00000000
0.00392157 0.00200718 0.00193050 0.00155702
0.00784314 0.00404044 0.00387690 0.00313293
0.01176470 0.00610028 0.00583939 0.00472808
0.01568630 0.00818723 0.00781817 0.00634281
0.01960780 0.01030180 0.00981344 0.00797750
0.02352940 0.01244460 0.01182540 0.00963252
0.02745100 0.01461620 0.01385430 0.01130820
0.03137250 0.01681720 0.01590030 0.01300510
0.03529410 0.01904800 0.01796360 0.01472340
0.03921570 0.02130950 0.02004460 0.01646360
0.04313730 0.02360220 0.02214330 0.01822620
0.04705880 0.02592670 0.02426000 0.02001150
0.05098040 0.02828370 0.02639500 0.02182000
0.05490200 0.03067400 0.02854840 0.02365220
0.05882350 0.03309810 0.03072060 0.02550850
0.06274510 0.03555630 0.03291180 0.02738950
0.06666670 0.03804640 0.03512250 0.02929550
0.07058820 0.04057200 0.03735490 0.03122720
0.07450980 0.04313350 0.03961160 0.03318490
0.07843140 0.04572960 0.04189370 0.03516930
0.08235290 0.04836150 0.04420280 0.03718040
0.08627450 0.05102830 0.04654110 0.03921770
0.09019610 0.05372490 0.04890990 0.04128100
0.09411760 0.05645250 0.05131020 0.04336990
0.09803920 0.05921230 0.05374290 0.04548490
0.10196100 0.06200420 0.05621280 0.04762720
0.10588200 0.06482990 0.05872300 0.04979900
0.10980400 0.06769360 0.06127490 0.05200200
0.11372500 0.07059740 0.06387080 0.05423780
0.11764700 0.07354700 0.06651730 0.05650820
0.12156900 0.07654260 0.06921460 0.05881530
0.12549000 0.07957760 0.07196170 0.06115980
0.12941200 0.08264560 0.07475670 0.06354140
0.13333300 0.08574910 0.07759900 0.06595710
0.13725500 0.08888760 0.08048690 0.06840840
0.14117600 0.09206100 0.08342020 0.07090020
0.14509800 0.09527620 0.08639890 0.07343440
0.14902000 0.09853760 0.08942260 0.07601460
0.15294100 0.10184900 0.09249240 0.07864110
0.15686300 0.10522200 0.09561880 0.08131360
0.16078400 0.10865000 0.09880410 0.08403520
0.16470600 0.11213600 0.10204800 0.08681790
0.16862700 0.11571000 0.10535100 0.08966720
0.17254900 0.11938800 0.10871000 0.09258380
0.17647100 0.12317800 0.11212800 0.09556360
0.18039200 0.12706600 0.11561700 0.09860670
0.18431400 0.13102100 0.11918100 0.10171100
0.18823500 0.13504400 0.12282600 0.10486900
0.19215700 0.13914000 0.12655000 0.10808100
0.19607800 0.14331900 0.13033100 0.11134200
0.20000000 0.14754200 0.13416800 0.11465700
0.20392200 0.15178500 0.13806600 0.11802500
0.20784300 0.15603300 0.14202600 0.12144900
0.21176500 0.16029400 0.14603600 0.12492900
0.21568600 0.16458100 0.15006700 0.12845700
0.21960800 0.16890000 0.15411800 0.13202700
0.22352900 0.17326500 0.15819000 0.13563700
0.22745100 0.17767000 0.16229300 0.13928100
0.23137300 0.18210900 0.16643300 0.14296000
0.23529400 0.18657400 0.17061500 0.14667400
0.23921600 0.19106900 0.17484700 0.15041100
0.24313700 0.19560900 0.17913200 0.15417100
0.24705900 0.20020200 0.18347100 0.15796200
0.25098000 0.20485300 0.18784700 0.16179200
0.25490200 0.20955700 0.19226900 0.16566500
0.25882400 0.21431000 0.19674700 0.16957400
0.26274500 0.21910800 0.20128100 0.17349900
0.26666700 0.22394800 0.20587500 0.17743500
0.27058800 0.22878000 0.21051100 0.18137900
0.27451000 0.23358600 0.21517700 0.18532600
0.27843100 0.23833900 0.21985600 0.18927800
0.28235300 0.24303800 0.22454800 0.19322400
0.28627500 0.24767700 0.22922300 0.19715700
0.29019600 0.25225200 0.23387600 0.20107600
0.29411800 0.25676000 0.23850400 0.20499700
0.29803900 0.26123900 0.24311000 0.20891800
0.30196100 0.26571000 0.24769500 0.21282600
0.30588200 0.27017900 0.25226000 0.21672200
0.30980400 0.27465600 0.25681400 0.22061100
0.31372500 0.27915700 0.26137500 0.22449100
0.31764700 0.28369700 0.26595000 0.22835200
0.32156900 0.28827700 0.27055300 0.23219500
0.32549000 0.29294500 0.27518900 0.23601800
0.32941200 0.29771200 0.27988200 0.23982100
0.33333300 0.30257400 0.28464000 0.24361100
0.33725500 0.30755300 0.28948900 0.24739000
0.34117600 0.31266800 0.29446200 0.25116600
0.34509800 0.31793200 0.29956500 0.25499300
0.34902000 0.32335300 0.30479400 0.25890000
0.35294100 0.32891400 0.31015600 0.26289700
0.35686300 0.33449200 0.31567600 0.26699000
0.36078400 0.34015900 0.32137700 0.27117300
0.36470600 0.34594500 0.32726200 0.27543800
0.36862700 0.35187100 0.33330000 0.27977300
0.37254900 0.35793000 0.33936700 0.28418200
0.37647100 0.36411600 0.34546100 0.28868900
0.38039200 0.37039800 0.35157500 0.29331000
0.38431400 0.37674500 0.35769600 0.29804900
0.38823500 0.38305800 0.36381400 0.30290100
0.39215700 0.38929100 0.36989700 0.30784500
0.39607800 0.39540800 0.37594600 0.31288900
0.40000000 0.40142900 0.38191200 0.31803600
0.40392200 0.40741800 0.38777200 0.32327700
0.40784300 0.41340200 0.39352400 0.32861800
0.41176500 0.41939500 0.39919100 0.33400200
0.41568600 0.42540300 0.40480800 0.33934500
0.41960800 0.43142200 0.41041700 0.34464500
0.42352900 0.43736900 0.41602400 0.34990200
0.42745100 0.44321000 0.42162100 0.35511500
0.43137300 0.44892500 0.42718800 0.36029500
0.43529400 0.45442600 0.43270500 0.36545100
0.43921600 0.45969900 0.43811300 0.37058600
0.44313700 0.46477200 0.44342500 0.37570500
0.44705900 0.46967200 0.44863900 0.38079100
0.45098000 0.47441600 0.45373000 0.38582500
0.45490200 0.47901800 0.45871200 0.39079800
0.45882400 0.48349700 0.46361300 0.39571400
0.46274500 0.48788000 0.46844600 0.40057100
0.46666700 0.49217700 0.47321000 0.40539700
0.47058800 0.49638900 0.47791500 0.41020000
0.47451000 0.50051900 0.48257600 0.41498700
0.47843100 0.50460300 0.48719300 0.41976300
0.48235300 0.50865800 0.49176600 0.42455700
0.48627500 0.51268600 0.49629400 0.42936700
0.49019600 0.51668600 0.50077700 0.43418200
0.49411800 0.52065600 0.50520400 0.43898200
0.49803900 0.52457700 0.50958000 0.44375100
0.50196100 0.52844300 0.51390900 0.44846800
0.50588200 0.53225100 0.51819000 0.45312700
0.50980400 0.53599800 0.52242700 0.45772800
0.51372500 0.53969100 0.52661900 0.46225800
0.51764700 0.54331600 0.53075700 0.46672600
0.52156900 0.54686800 0.53483500 0.47114200
0.52549000 0.55034000 0.53885800 0.47552000
0.52941200 0.55372700 0.54282600 0.47986100
0.53333300 0.55703500 0.54673300 0.48416600
0.53725500 0.56029000 0.55056400 0.48843800
0.54117600 0.56350500 0.55431400 0.49267600
0.54509800 0.56668500 0.55798300 0.49688100
0.54902000 0.56983600 0.56158500 0.50104800
0.55294100 0.57298000 0.56512600 0.50516900
0.55686300 0.57612500 0.56861900 0.50924300
0.56078400 0.57926900 0.57207200 0.51326900
0.56470600 0.58241900 0.57550400 0.51724900
0.56862700 0.58557500 0.57892000 0.52118400
0.57254900 0.58873400 0.58232300 0.52507100
0.57647100 0.59189100 0.58572000 0.52891500
0.58039200 0.59504700 0.58911100 0.53271200
0.58431400 0.59819100 0.59249700 0.53645700
0.58823500 0.60132000 0.59587900 0.54014000
0.59215700 0.60443700 0.59924800 0.54375800
0.59607800 0.60754300 0.60259700 0.54731500
0.60000000 0.61063800 0.60593000 0.55082300
0.60392200 0.61372500 0.60924900 0.55428600
0.60784300 0.61680300 0.61255600 0.55770400
0.61176500 0.61987800 0.61585300 0.56108100
0.61568600 0.62295300 0.61914300 0.56441900
0.61960800 0.62602200 0.62242600 0.56771200
0.62352900 0.62906600 0.62570000 0.57096100
0.62745100 0.63208600 0.62894400 0.57417900
0.63137300 0.63508000 0.63215600 0.57737200
0.63529400 0.63805000 0.63533200 0.58054100
0.63921600 0.64100100 0.63847300 0.58368600
0.64313700 0.64393700 0.64158800 0.58681600
0.64705900 0.64685900 0.64467700 0.58994100
0.65098000 0.64976600 0.64773700 0.59306600
0.65490200 0.65265400 0.65076800 0.59619200
0.65882400 0.65552000 0.65376900 0.59931700
0.66274500 0.65836200 0.65674300 0.60243500
0.66666700 0.66117800 0.65969200 0.60555600
0.67058800 0.66397000 0.66261700 0.60867900
0.67451000 0.66673600 0.66551700 0.61180000
0.67843100 0.66946600 0.66838600 0.61492300
0.68235300 0.67215600 0.67121200 0.61805100
0.68627500 0.67482500 0.67402800 0.62118800
0.69019600 0.67750600 0.67685600 0.62433400
0.69411800 0.68020200 0.67969700 0.62747500
0.69803900 0.68291300 0.68255400 0.63061300
0.70196100 0.68563700 0.68543000 0.63375000
0.70588200 0.68837900 0.68833100 0.63688100
0.70980400 0.69114100 0.69126500 0.64000000
0.71372500 0.69392900 0.69423300 0.64310700
0.71764700 0.69673400 0.69723300 0.64620600
0.72156900 0.69955500 0.70026200 0.64929800
0.72549000 0.70239400 0.70331800 0.65238400
0.72941200 0.70526000 0.70640100 0.65546500
0.73333300 0.70815500 0.70951400 0.65853900
0.73725500 0.71107900 0.71265800 0.66160700
0.74117600 0.71403200 0.71583300 0.66467000
0.74509800 0.71701100 0.71902800 0.66772400
0.74902000 0.72000400 0.72222900 0.67074700
0.75294100 0.72299600 0.72543700 0.67373300
0.75686300 0.72598700 0.72865300 0.67670300
0.76078400 0.72897000 0.73186700 0.67970000
0.76470600 0.73194100 0.73507500 0.68272400
0.76862700 0.73489900 0.73827300 0.68577300
0.77254900 0.73784600 0.74145600 0.68885200
0.77647100 0.74077900 0.74462200 0.69195300
0.78039200 0.74369800 0.74777200 0.69507400
0.78431400 0.74660000 0.75090500 0.69821200
0.78823500 0.74948700 0.75401800 0.70136700
0.79215700 0.75235300 0.75712100 0.70453200
0.79607800 0.75520200 0.76021600 0.70770000
0.80000000 0.75804300 0.76330800 0.71087500
0.80392200 0.76088400 0.76639600 0.71405600
0.80784300 0.76373200 0.76948100 0.71724500
0.81176500 0.76658800 0.77256500 0.72044200
0.81568600 0.76945000 0.77565000 0.72363600
0.81960800 0.77232000 0.77873700 0.72682900
0.82352900 0.77520300 0.78182800 0.73002200
0.82745100 0.77810000 0.78493200 0.73321700
0.83137300 0.78102100 0.78804400 0.73641800
0.83529400 0.78398200 0.79116300 0.73963000
0.83921600 0.78698400 0.79429700 0.74285200
0.84313700 0.79002700 0.79745000 0.74608400
0.84705900 0.79311400 0.80062100 0.74932500
0.85098000 0.79624200 0.80381900 0.75259000
0.85490200 0.79940800 0.80706100 0.75592300
0.85882400 0.80261800 0.81035000 0.75934200
0.86274500 0.80589400 0.81368600 0.76284900
0.86666700 0.80923900 0.81708200 0.76644200
0.87058800 0.81265700 0.82054500 0.77012300
0.87451000 0.81615400 0.82409000 0.77390000
0.87843100 0.81973500 0.82772500 0.77778400
0.88235300 0.82341100 0.83145400 0.78178600
0.88627500 0.82719100 0.83528600 0.78591100
0.89019600 0.83108800 0.83923300 0.79017100
0.89411800 0.83511900 0.84330100 0.79458100
0.89803900 0.83930300 0.84748400 0.79915200
0.90196100 0.84364700 0.85177900 0.80392800
0.90588200 0.84814600 0.85619200 0.80892800
0.90980400 0.85277900 0.86076200 0.81416500
0.91372500 0.85755800 0.86550000 0.81963900
0.91764700 0.86253200 0.87041600 0.82533500
0.92156900 0.86770200 0.87550700 0.83125300
0.92549000 0.87307200 0.88073900 0.83738400
0.92941200 0.87862600 0.88609400 0.84367500
0.93333300 0.88431100 0.89156900 0.85011200
0.93725500 0.89013500 0.89713300 0.85669000
0.94117600 0.89604500 0.90280900 0.86346300
0.94509800 0.90203500 0.90859400 0.87049400
0.94902000 0.90815800 0.91447200 0.87784600
0.95294100 0.91440900 0.92041900 0.88549900
0.95686300 0.92077000 0.92643900 0.89344000
0.96078400 0.92723600 0.93254300 0.90161900
0.96470600 0.93383900 0.93873300 0.90997200
0.96862700 0.94057400 0.94504200 0.91849700
0.97254900 0.94746800 0.95149200 0.92730700
0.97647100 0.95452000 0.95805900 0.93650700
0.98039200 0.96169200 0.96473700 0.94608400
0.98431400 0.96899500 0.97153100 0.95602400
0.98823500 0.97646800 0.97845000 0.96637800
0.99215700 0.98412200 0.98549900 0.97715400
0.99607800 0.99196400 0.99268100 0.98835300
1.00000000 1.00000000 1.00000000 1.00000000
END_DATA
CAL    

DESCRIPTOR "Argyll Calibration options and model"
ORIGINATOR "Argyll dispcal"
CREATED "Mon Dec 20 20:00:40 202"

NUMBER_OF_FIELDS 3
BEGIN_DATA_FORMAT
R_P G_P B_P
END_DATA_FORMAT

NUMBER_OF_SETS 32
BEGIN_DATA
0.004894580 0.002760520 0.003385920
0.995105000 0.997239000 0.996614000
0.325083000 0.589671000 0.167462000
4.015332000 1.849842000 3.073691000
-0.875834000 -0.265141000 -0.495295000
0.414367000 0.296238000 0.174734000
-0.169074000 -0.133590000 -0.148284000
0.022301200 0.036200200 0.009137310
-0.050626300 -0.035789600 -0.071508300
0.034532300 -0.003336630 0.027551300
-0.055007600 -0.003074800 -0.020197400
0.025464400 0.005856710 0.016949500
-0.010900900 0.000878556 -0.049008200
0.036660900 0.013640200 0.037266500
-0.012317200 0.015062800 -0.009521330
0.018855000 0.005775880 0.014522400
-0.004261630 -0.017062200 0.002402660
0.016327300 0.013704600 0.011952300
-0.005320950 0.009587520 -0.000795693
0.008971310 0.013212600 0.005782320
0.001637340 0.003439500 -0.010957700
0.002854930 0.017996900 0.000967468
0.003096100 0.001617310 -0.000351255
0.001685850 0.013217700 0.005579140
0.006506910 0.006455070 0.000863022
-0.001892700 0.007729180 0.018231400
0.005172080 0.004166320 0.010305200
0.001503870 0.007267620 0.020290800
0.006967070 0.008137670 0.008669300
0.002361950 0.004405670 0.016410200
0.008992880 0.014831700 0.008807450
0.007827500 0.007898350 0.020225300
END_DATA
